icons/1_Primary/Playasia.svg

<svg xmlns="http://www.w3.org/2000/svg" width="1024" height="1024" fill="none">
   <g clip-path="url(#a)">
      <path fill="#54688C" d="M512 1024c282.77 0 512-229.23 512-512S794.77 0 512 0 0 229.23 0 512s229.23 512 512 512Z"/>
      <path fill="#fff" d="M412.42 479.91c0-54.13 15.68-100.77 45.28-116.39C445.18 358.07 431 353 405 353c-56.58 0-77 43.85-100.4 132.05-23.4 88.2-32.7 186 27.21 186 48.27 0 61.76-56.52 120.91-80.56-24.8-18.16-40.3-60.63-40.3-110.58Zm307 5.15C696 396.85 675.57 353 618.95 353c-40.82 0-52.46 12.47-74.43 19.38 54.55 21.92 108.84 65.5 108.84 107.53 0 40.71-50.77 81.91-103.53 103.83C627.89 601.13 638.52 671 692.18 671c59.94 0 50.63-97.74 27.23-185.95l.01.01Zm-96.71-10.72c.08 3.13-2.8 6.31-8.53 9.57a36778.904 36778.904 0 0 0-122.32 69.87c-11 6.46-27 16.32-27 0l-.16-79.44.16-79.43c0-16.31 16-6.45 27 0s110.91 63.41 122.32 69.86c5.72 3.29 8.59 6.4 8.51 9.56l.02.01ZM556.76 351c-6.07 2.71-11.91 5.46-19.08 7.47a93.007 93.007 0 0 1-25.75 3.16c-11.15 0-19.15-1.32-25.62-3.16-7.17-2-13-4.77-19-7.47-14.56-6.47-31-13.29-62.22-13.29-33.55 0-57.42 13.58-75.3 39.58-16.83 24.45-28.32 59.94-39.95 103.83-11.81 44.57-20.53 93-18.15 131 2.39 37.31 17.09 74.2 60.15 74.2 19.71 0 34.75-7.5 47.46-17.48a191.974 191.974 0 0 0 17.36-15.89c5.29-5.27 10.59-10.94 16.35-16.6 21.5-21.12 47.59-41.2 99.12-41.2s77.49 20.08 98.95 41.2c5.74 5.66 11.1 11.31 16.31 16.6a192.322 192.322 0 0 0 17.39 15.89c12.71 10 27.75 17.48 47.46 17.48 43 0 57.76-36.89 60.12-74.2 2.41-38-6.3-86.39-18.12-131-11.64-43.9-23.13-79.38-39.93-103.83-17.88-26-41.84-39.58-75.33-39.58-31.21 0-47.68 6.82-62.18 13.29h-.04Zm-23.23-7.24c6.4-1.79 11.57-4.32 17-6.71 15.64-7 34.29-14.65 68.44-14.65 38.74 0 67.28 16.21 87.94 46.21 18.5 26.95 30.52 64.87 42.1 108.63 11.92 44.92 21.15 95.29 18.58 135.81-2.38 38.06-18.58 88.57-75.36 88.57-24.09 0-42.39-9.34-56.91-20.8a198.81 198.81 0 0 1-18.79-17.12c-5.18-5.24-10.5-10.84-16.21-16.46-19.71-19.41-42.12-36.8-88.19-36.8s-68.67 17.41-88.4 36.8c-5.71 5.62-11 11.21-16.19 16.48a207.042 207.042 0 0 1-18.78 17.13c-14.55 11.42-32.83 20.76-56.91 20.76-56.84 0-73-50.51-75.38-88.57-2.58-40.52 6.64-90.88 18.58-135.81 11.6-43.76 23.62-81.69 42.14-108.63 20.6-30 49.19-46.21 87.9-46.21 34.12 0 52.79 7.64 68.44 14.65 5.4 2.39 10.58 4.92 17 6.71a90.643 90.643 0 0 0 43 0v.01Z"/>
   </g>
   <defs>
      <clipPath id="a">
         <path fill="#fff" d="M0 0h1024v1024H0z"/>
      </clipPath>
   </defs>
</svg>

<svg width="1024" height="1024" viewBox="0 0 1024 1024" fill="none" xmlns="http://www.w3.org/2000/svg">
<g clip-path="url(#clip0_2_3153)">
<path d="M512 1024C794.77 1024 1024 794.77 1024 512C1024 229.23 794.77 0 512 0C229.23 0 0 229.23 0 512C0 794.77 229.23 1024 512 1024Z" fill="#54688C"/>
<path d="M412.42 479.91C412.42 425.78 428.1 379.14 457.7 363.52C445.18 358.07 431 353 405 353C348.42 353 328 396.85 304.6 485.05C281.2 573.25 271.9 671.05 331.81 671.05C380.08 671.05 393.57 614.53 452.72 590.49C427.92 572.33 412.42 529.86 412.42 479.91ZM719.42 485.06C696 396.85 675.57 353 618.95 353C578.13 353 566.49 365.47 544.52 372.38C599.07 394.3 653.36 437.88 653.36 479.91C653.36 520.62 602.59 561.82 549.83 583.74C627.89 601.13 638.52 671 692.18 671C752.12 671 742.81 573.26 719.41 485.05L719.42 485.06ZM622.71 474.34C622.79 477.47 619.91 480.65 614.18 483.91C573.36 507.123 532.587 530.413 491.86 553.78C480.86 560.24 464.86 570.1 464.86 553.78L464.7 474.34L464.86 394.91C464.86 378.6 480.86 388.46 491.86 394.91C502.86 401.36 602.77 458.32 614.18 464.77C619.9 468.06 622.77 471.17 622.69 474.33L622.71 474.34ZM556.76 351C550.69 353.71 544.85 356.46 537.68 358.47C529.286 360.721 520.619 361.785 511.93 361.63C500.78 361.63 492.78 360.31 486.31 358.47C479.14 356.47 473.31 353.7 467.31 351C452.75 344.53 436.31 337.71 405.09 337.71C371.54 337.71 347.67 351.29 329.79 377.29C312.96 401.74 301.47 437.23 289.84 481.12C278.03 525.69 269.31 574.12 271.69 612.12C274.08 649.43 288.78 686.32 331.84 686.32C351.55 686.32 366.59 678.82 379.3 668.84C385.406 663.903 391.204 658.597 396.66 652.95C401.95 647.68 407.25 642.01 413.01 636.35C434.51 615.23 460.6 595.15 512.13 595.15C563.66 595.15 589.62 615.23 611.08 636.35C616.82 642.01 622.18 647.66 627.39 652.95C632.857 658.597 638.664 663.904 644.78 668.84C657.49 678.84 672.53 686.32 692.24 686.32C735.24 686.32 750 649.43 752.36 612.12C754.77 574.12 746.06 525.73 734.24 481.12C722.6 437.22 711.11 401.74 694.31 377.29C676.43 351.29 652.47 337.71 618.98 337.71C587.77 337.71 571.3 344.53 556.8 351H556.76ZM533.53 343.76C539.93 341.97 545.1 339.44 550.53 337.05C566.17 330.05 584.82 322.4 618.97 322.4C657.71 322.4 686.25 338.61 706.91 368.61C725.41 395.56 737.43 433.48 749.01 477.24C760.93 522.16 770.16 572.53 767.59 613.05C765.21 651.11 749.01 701.62 692.23 701.62C668.14 701.62 649.84 692.28 635.32 680.82C628.698 675.52 622.422 669.802 616.53 663.7C611.35 658.46 606.03 652.86 600.32 647.24C580.61 627.83 558.2 610.44 512.13 610.44C466.06 610.44 443.46 627.85 423.73 647.24C418.02 652.86 412.73 658.45 407.54 663.72C401.637 669.809 395.365 675.53 388.76 680.85C374.21 692.27 355.93 701.61 331.85 701.61C275.01 701.61 258.85 651.1 256.47 613.04C253.89 572.52 263.11 522.16 275.05 477.23C286.65 433.47 298.67 395.54 317.19 368.6C337.79 338.6 366.38 322.39 405.09 322.39C439.21 322.39 457.88 330.03 473.53 337.04C478.93 339.43 484.11 341.96 490.53 343.75C504.656 347.199 519.404 347.199 533.53 343.75V343.76Z" fill="white"/>
</g>
<defs>
<clipPath id="clip0_2_3153">
<rect width="1024" height="1024" fill="white"/>
</clipPath>
</defs>
</svg>
